svgs/icons/sm/calendar.svg

<svg xmlns="http://www.w3.org/2000/svg" viewBox="0 0 16 16" enable-background="new 0 0 16 16"><g fill="#34363D"><path d="M14 2h-1c0-.6-.4-1-1-1h-1c-.6 0-1 .4-1 1h-4c0-.6-.4-1-1-1h-1c-.6 0-1 .4-1 1h-1c-.6 0-1 .4-1 1v9.6c0 1.3 1.1 2.4 2.4 2.4h9.4c1.2 0 2.3-1 2.3-2.3v-9.7c-.1-.6-.5-1-1.1-1zm0 10.7c0 .7-.6 1.3-1.3 1.3h-9.3c-.8 0-1.4-.6-1.4-1.4v-6.6h12v6.7zM3 7h3v3h-3z"/></g></svg>

<svg xmlns="http://www.w3.org/2000/svg" viewBox="0 0 16 16"><path d="M14 2h-1c0-.6-.4-1-1-1h-1c-.6 0-1 .4-1 1H6c0-.6-.4-1-1-1H4c-.6 0-1 .4-1 1H2c-.6 0-1 .4-1 1v9.6C1 13.9 2.1 15 3.4 15h9.4c1.2 0 2.3-1 2.3-2.3V3c-.1-.6-.5-1-1.1-1zm0 10.7c0 .7-.6 1.3-1.3 1.3H3.4c-.8 0-1.4-.6-1.4-1.4V6h12v6.7zM3 7h3v3H3z" fill="#34363D"/></svg>
